assets/images/main_section/illustration-mobile.svg

<svg width="147" height="410" fill="none" xmlns="http://www.w3.org/2000/svg"><g clip-path="url(#a)"><path d="m206.82 347.489 13.421-3.72-3.718-13.415-13.421 3.721-3.719-13.415 13.422-3.72-3.719-13.415-13.421 3.72-13.421 3.72-3.718-13.414 13.421-3.72-3.719-13.415-13.421 3.72 3.719 13.415-13.422 3.72-13.421 3.72-3.718-13.415-13.421 3.721-13.421 3.72 3.718 13.414 3.718 13.415-13.421 3.72-3.718-13.414-5.988 1.659-6.264-90.38s8.892-13.243 32.782-14.087c35.784-1.251 53.347 17.993 82.961 24.563 18.611 4.175 22.74-4.192 22.74-4.192l12.076 77.658s31.148-6.745 48.934 14.104c10.554 12.409-5.31 25.362-21.725 29.912-17.138 4.751-37.407 1.813-69.859-6.971l-.257-.929z" fill="#fff" stroke="#FF6B00" stroke-width=".496" stroke-miterlimit="10"/><path d="M144.156 329.967c-5.224.004-9.806.718-13.964 1.76l-1.631-5.882 13.421-3.72 2.174 7.842zM108.535 345.841l-1.032.286-1.035-14.158 8.673-2.404 2.173 7.842c-4.423 2.893-7.407 6.165-8.779 8.434z" fill="#fff" stroke="#FF6B00" stroke-width=".496" stroke-miterlimit="10"/><path d="m138.262 308.712 13.422-3.72 3.718 13.414-13.421 3.72-3.719-13.414z" fill="#fff" stroke="#FF6B00" stroke-width=".496" stroke-miterlimit="10"/><path d="M155.731 215.306s-12.984-6.735-29.422-1.067c-16.439 5.667-56.112 42.221-56.112 42.221l-1.247 70.905s48.421-41.089 64.371-44.51c15.199-3.324 28.154 3.307 28.154 3.307l-5.744-70.856z" fill="#262626"/><path d="M143.07 197.704s-12.258-3.714-29.423-1.067c-15.456 2.395-56.112 42.221-56.112 42.221l-1.246 70.906s48.907-39.336 64.371-44.511c15.463-5.175 27.869.275 27.869.275l-5.459-67.824z" fill="#fff" stroke="#FF6B00" stroke-width=".496" stroke-miterlimit="10"/><path d="m102.318 201.888.231 31.716-30.897 24.898.177-33.051 22.56-18.476 7.929-5.087z" fill="#262626"/><path d="m137.853 337.713 34.689-9.615 6.092 21.979-34.688 9.615-6.093-21.979z" fill="#fff" stroke="#FF6B00" stroke-width=".496" stroke-miterlimit="10"/><path d="m169.818 341.249-3.806 3.485-.244-.881 2.922-2.558-.016-.055-3.821-.689-.244-.881 5.056 1.029.153.55zm-10.001-2.503.743-.206 4.609 7.806-.743.206-4.609-7.806zm-3.383 8.88-3.937-2.228 2.228-3.937.676.383-1.578 2.779 5.649-1.566.21.757-5.649 1.566 2.785 1.577-.384.669zm-10.13.141-.153-.551 3.806-3.485.244.881-2.921 2.558.015.055 3.822.69.244.88-5.057-1.028z" fill="#000"/><path d="m94.342 199.989.127 31.744-30.897 24.899.187-30.609 30.583-26.034zM138.699 173.915l-2.807-29.78 30.925-24.795 2.464 28.541-30.582 26.034z" fill="#fff" stroke="#262626" stroke-width=".496" stroke-miterlimit="10"/><path d="M152.591 151.842a3.642 3.642 0 0 1-4.483-2.535 3.642 3.642 0 0 1 7.021-1.946 3.641 3.641 0 0 1-2.538 4.481zM79.72 237.489l-.001 11.223-10.902 8.8.117-10.81 10.787-9.213zM119.26 254.197l.091 17.976-16.907 10.798.081-17.357 16.735-11.417z" fill="#fff" stroke="#262626" stroke-width=".496" stroke-miterlimit="10"/></g><defs><clipPath id="a"><path fill="#fff" transform="scale(-1 1) rotate(15.492 -196.052 -1441.27)" d="M0 0h406.889v312.031H0z"/></clipPath></defs></svg>

<svg width="147" height="410" viewBox="0 0 147 410" fill="none" xmlns="http://www.w3.org/2000/svg">
<g clip-path="url(#clip0_48_297)">
<path d="M206.82 347.489L220.241 343.769L216.523 330.354L203.102 334.075L199.383 320.66L212.805 316.94L209.086 303.525L195.665 307.245L182.244 310.965L178.526 297.551L191.947 293.831L188.228 280.416L174.807 284.136L178.526 297.551L165.104 301.271L151.683 304.991L147.965 291.576L134.544 295.297L121.123 299.017L124.841 312.431L128.559 325.846L115.138 329.566L111.42 316.152L105.432 317.811L99.168 227.431C99.168 227.431 108.06 214.188 131.95 213.344C167.734 212.093 185.297 231.337 214.911 237.907C233.522 242.082 237.651 233.715 237.651 233.715L249.727 311.373C249.727 311.373 280.875 304.628 298.661 325.477C309.215 337.886 293.351 350.839 276.936 355.389C259.798 360.14 239.529 357.202 207.077 348.418L206.82 347.489Z" fill="white" stroke="#FF6B00" stroke-width="0.496227" stroke-miterlimit="10"/>
<path d="M144.156 329.967C138.932 329.971 134.35 330.685 130.192 331.727L128.561 325.845L141.982 322.125L144.156 329.967Z" fill="white" stroke="#FF6B00" stroke-width="0.496227" stroke-miterlimit="10"/>
<path d="M108.535 345.841L107.503 346.127L106.468 331.969L115.141 329.565L117.314 337.407C112.891 340.3 109.907 343.572 108.535 345.841Z" fill="white" stroke="#FF6B00" stroke-width="0.496227" stroke-miterlimit="10"/>
<path d="M138.262 308.712L151.684 304.992L155.402 318.406L141.981 322.126L138.262 308.712Z" fill="white" stroke="#FF6B00" stroke-width="0.496227" stroke-miterlimit="10"/>
<path d="M155.731 215.306C155.731 215.306 142.747 208.571 126.309 214.239C109.87 219.906 70.1969 256.46 70.1969 256.46L68.9503 327.365C68.9503 327.365 117.371 286.276 133.321 282.855C148.52 279.531 161.475 286.162 161.475 286.162L155.731 215.306Z" fill="#262626"/>
<path d="M143.07 197.704C143.07 197.704 130.812 193.99 113.647 196.637C98.1911 199.032 57.5354 238.858 57.5354 238.858L56.2888 309.764C56.2888 309.764 105.196 270.428 120.66 265.253C136.123 260.078 148.529 265.528 148.529 265.528L143.07 197.704Z" fill="white" stroke="#FF6B00" stroke-width="0.496227" stroke-miterlimit="10"/>
<path d="M102.318 201.888L102.549 233.604L71.6522 258.502L71.8294 225.451L94.3899 206.975L102.318 201.888Z" fill="#262626"/>
<path d="M137.853 337.713L172.542 328.098L178.634 350.077L143.946 359.692L137.853 337.713Z" fill="white" stroke="#FF6B00" stroke-width="0.496227" stroke-miterlimit="10"/>
<path d="M169.818 341.249L166.012 344.734L165.768 343.853L168.69 341.295L168.674 341.24L164.853 340.551L164.609 339.67L169.665 340.699L169.818 341.249ZM159.817 338.746L160.56 338.54L165.169 346.346L164.426 346.552L159.817 338.746ZM156.434 347.626L152.497 345.398L154.725 341.461L155.401 341.844L153.823 344.623L159.472 343.057L159.682 343.814L154.033 345.38L156.818 346.957L156.434 347.626ZM146.304 347.767L146.151 347.216L149.957 343.731L150.201 344.612L147.28 347.17L147.295 347.225L151.117 347.915L151.361 348.795L146.304 347.767Z" fill="black"/>
<path d="M94.3418 199.989L94.4694 231.733L63.5724 256.632L63.7594 226.023L94.3418 199.989Z" fill="white" stroke="#262626" stroke-width="0.496227" stroke-miterlimit="10"/>
<path d="M138.699 173.915L135.892 144.135L166.817 119.34L169.281 147.881L138.699 173.915Z" fill="white" stroke="#262626" stroke-width="0.496227" stroke-miterlimit="10"/>
<path d="M152.591 151.842C150.652 152.379 148.645 151.244 148.108 149.307C147.571 147.369 148.707 145.363 150.646 144.825C152.585 144.288 154.592 145.423 155.129 147.361C155.666 149.298 154.53 151.305 152.591 151.842Z" fill="white" stroke="#262626" stroke-width="0.496227" stroke-miterlimit="10"/>
<path d="M79.7207 237.489L79.7188 248.712L68.8173 257.512L68.9336 246.702L79.7207 237.489Z" fill="white" stroke="#262626" stroke-width="0.496227" stroke-miterlimit="10"/>
<path d="M119.26 254.197L119.351 272.173L102.444 282.971L102.525 265.614L119.26 254.197Z" fill="white" stroke="#262626" stroke-width="0.496227" stroke-miterlimit="10"/>
</g>
<defs>
<clipPath id="clip0_48_297">
<rect width="406.889" height="312.031" fill="white" transform="matrix(-0.963665 0.267112 0.267112 0.963665 392.104 0)"/>
</clipPath>
</defs>
</svg>
